packages/katcn/src/icons/svg/sunset-solid.svg

<svg width="24" height="25" viewBox="0 0 24 25" fill="none" xmlns="http://www.w3.org/2000/svg">
<path d="M12 7.76802C12.6 7.76802 13 7.36802 13 6.76802V4.96802C13 4.36802 12.6 3.96802 12 3.96802C11.4 3.96802 11 4.36802 11 4.96802V6.76802C11 7.26802 11.4 7.76802 12 7.76802Z" fill="black"/>
<path d="M4.40002 10.268C4.60002 10.468 4.90002 10.568 5.10002 10.568C5.30002 10.568 5.60002 10.468 5.80002 10.268C6.20002 9.86801 6.20002 9.26801 5.80002 8.86801L4.60002 7.66801C4.20002 7.26801 3.60002 7.26801 3.20002 7.66801C2.80002 8.06801 2.80002 8.66801 3.20002 9.06801L4.40002 10.268Z" fill="black"/>
<path d="M18.8 10.568C19.1 10.568 19.3 10.468 19.5 10.268L20.8 8.96801C21.2 8.56801 21.2 7.96801 20.8 7.56801C20.4 7.16801 19.8 7.16801 19.4 7.56801L18.1 8.86801C17.7 9.26801 17.7 9.86801 18.1 10.268C18.3 10.468 18.6 10.568 18.8 10.568Z" fill="black"/>
<path d="M22 15.468H19.2C18.9 11.768 15.8 8.86801 12 8.86801C8.2 8.86801 5.1 11.768 4.8 15.468H2C1.4 15.468 1 15.868 1 16.468C1 17.068 1.4 17.468 2 17.468H22C22.6 17.468 23 17.068 23 16.468C23 15.868 22.6 15.468 22 15.468Z" fill="black"/>
<path d="M18.2 19.968H5.79999C5.19999 19.968 4.79999 20.368 4.79999 20.968C4.79999 21.568 5.19999 21.968 5.79999 21.968H18.2C18.8 21.968 19.2 21.568 19.2 20.968C19.2 20.368 18.7 19.968 18.2 19.968Z" fill="black"/>
</svg>

<svg xmlns="http://www.w3.org/2000/svg" fill="none" viewBox="0 0 24 25"><path fill="#000" d="M12 7.768c.6 0 1-.4 1-1v-1.8c0-.6-.4-1-1-1s-1 .4-1 1v1.8c0 .5.4 1 1 1m-7.6 2.5c.2.2.5.3.7.3s.5-.1.7-.3c.4-.4.4-1 0-1.4l-1.2-1.2c-.4-.4-1-.4-1.4 0s-.4 1 0 1.4zm14.4.3c.3 0 .5-.1.7-.3l1.3-1.3c.4-.4.4-1 0-1.4s-1-.4-1.4 0l-1.3 1.3c-.4.4-.4 1 0 1.4.2.2.5.3.7.3m3.2 4.9h-2.8c-.3-3.7-3.4-6.6-7.2-6.6s-6.9 2.9-7.2 6.6H2c-.6 0-1 .4-1 1s.4 1 1 1h20c.6 0 1-.4 1-1s-.4-1-1-1m-3.8 4.5H5.8c-.6 0-1 .4-1 1s.4 1 1 1h12.4c.6 0 1-.4 1-1s-.5-1-1-1"/></svg>
